src/assets/images/prototype/main-image/7-desodorisant.svg

<svg width="645" height="588" viewBox="0 0 645 588" fill="none" xmlns="http://www.w3.org/2000/svg">
<path d="M641.919 152.42V571.115C641.919 573.281 640.533 575.204 638.455 575.819C625.126 579.762 598.073 586 573.244 586C548.504 586 522.894 579.807 510.367 575.861C508.339 575.223 507 573.324 507 571.199V152.379C507 150.224 508.381 148.312 510.426 147.633L571.698 127.313C572.703 126.98 573.787 126.975 574.795 127.297L638.443 147.657C640.514 148.32 641.919 150.245 641.919 152.42Z" fill="white" stroke="#D9D9D9" stroke-width="4" stroke-linejoin="round"/>
<path d="M518.547 79.112C515.092 86.7268 510.743 121.396 507.968 142.569C507.51 146.066 510.697 148.917 514.128 148.098C527.615 144.88 550.747 140.023 574.46 140.732C599.134 141.469 623.779 145.431 636.635 147.775C639.497 148.297 642.208 146.312 642.306 143.405C642.899 125.977 638.303 94.8956 618.217 79.112C597.076 62.4983 553.993 56.3865 531.889 55.1642C529.725 55.0445 527.773 56.3767 527.009 58.4047C524.976 63.8003 521.658 72.2558 518.547 79.112Z" fill="white" stroke="#D9D9D9" stroke-width="4" stroke-linejoin="round"/>
<ellipse cx="524.018" cy="99.4715" rx="3.64647" ry="5.35822" fill="white" stroke="#D9D9D9" stroke-width="4" stroke-linejoin="round"/>
<path d="M479.872 74.3657C489.905 74.3657 502.297 81.5015 507.797 85.4466C508.182 85.7226 508.595 85.9457 509.035 86.1204C513.671 87.9606 521.515 92.2921 520.372 96.8656C518.872 102.866 502.872 111.366 491.872 111.366H468.721C467.836 111.366 466.973 111.603 466.198 112.031C461.748 114.484 453.48 118.366 448.372 118.366H426.615C426.119 118.366 425.635 118.439 425.161 118.581C419.109 120.402 407.051 123.702 400.646 124.304C400.131 124.353 399.635 124.46 399.151 124.641C375.705 133.425 333.976 131.801 315.872 129.866H276.323C274.243 129.866 272.395 131.157 271.577 133.068C268.121 141.137 261.509 153.42 254.872 155.866C247.917 158.428 224.8 162.023 211.346 163.892C209.258 164.182 207.625 165.765 206.896 167.743C202.62 179.339 191.052 182.244 182.846 182.204C180.292 182.191 177.887 183.736 177.028 186.141C172.565 198.629 161.392 217.509 142.872 217.866C122.671 218.254 99.8908 212.071 90.1987 208.661C89.6489 208.468 89.0794 208.368 88.4968 208.356C82.2383 208.227 69.1697 206.734 60.5 201.5C51.4025 196.008 38.0427 183.878 32.5 178.5C21.9444 165.669 20.5111 152.544 20.7538 142.371C20.798 140.521 19.8607 138.798 18.4088 137.65C11.0997 131.868 1.95116 118.558 2.0002 96.8656C2.0183 88.8561 3.29033 79.7037 6.37188 69.3657C11.6186 56.3688 31.6078 28.8702 69.9572 21.2278C71.1799 20.9842 72.274 20.3039 73.1539 19.4207C78.5128 14.0416 93.6502 4.91898 121.372 2.36567C151.338 -0.394382 183.442 13.1372 196.325 20.5478C196.697 20.7622 197.073 20.9217 197.486 21.0383C208.615 24.1747 231.54 31.1811 239 35.5C246.6 39.9 264.748 49.9104 272.872 54.3657C284.872 61.3657 315.372 59.8657 335.872 60.3657C352.009 60.7593 384.315 69.5762 399.161 74.1458C399.641 74.2937 400.124 74.3657 400.626 74.3657H432C440.774 74.3657 451.92 76.6751 458.094 78.2545C459.542 78.6248 461.08 78.3569 462.434 77.727C465.701 76.2079 471.722 74.3657 479.872 74.3657Z" fill="white" stroke="#D9D9D9" stroke-width="4" stroke-linejoin="round"/>
</svg>

<svg width="645" height="588" fill="none" xmlns="http://www.w3.org/2000/svg"><path d="M641.919 152.42v418.695c0 2.166-1.386 4.089-3.464 4.704C625.126 579.762 598.073 586 573.244 586c-24.74 0-50.35-6.193-62.877-10.139-2.028-.638-3.367-2.537-3.367-4.662v-418.82a5.001 5.001 0 013.426-4.746l61.272-20.32a5.004 5.004 0 013.097-.016l63.648 20.36a5 5 0 013.476 4.763z" fill="#fff" stroke="#D9D9D9" stroke-width="4" stroke-linejoin="round"/><path d="M518.547 79.112c-3.455 7.615-7.804 42.284-10.579 63.457-.458 3.497 2.729 6.348 6.16 5.529 13.487-3.218 36.619-8.075 60.332-7.366 24.674.737 49.319 4.699 62.175 7.043 2.862.522 5.573-1.463 5.671-4.37.593-17.428-4.003-48.51-24.089-64.293-21.141-16.614-64.224-22.725-86.328-23.948-2.164-.12-4.116 1.213-4.88 3.24-2.033 5.396-5.351 13.852-8.462 20.708z" fill="#fff" stroke="#D9D9D9" stroke-width="4" stroke-linejoin="round"/><ellipse cx="524.018" cy="99.472" rx="3.646" ry="5.358" fill="#fff" stroke="#D9D9D9" stroke-width="4" stroke-linejoin="round"/><path d="M479.872 74.366c10.033 0 22.425 7.135 27.925 11.08.385.277.798.5 1.238.674 4.636 1.84 12.48 6.172 11.337 10.746-1.5 6-17.5 14.5-28.5 14.5h-23.151c-.885 0-1.748.237-2.523.665-4.45 2.453-12.718 6.335-17.826 6.335h-21.757c-.496 0-.98.073-1.454.215-6.052 1.821-18.11 5.121-24.515 5.723a5.8 5.8 0 00-1.495.337c-23.446 8.784-65.175 7.16-83.279 5.225h-39.549c-2.08 0-3.928 1.291-4.746 3.202-3.456 8.069-10.068 20.352-16.705 22.798-6.955 2.562-30.072 6.157-43.526 8.026-2.088.29-3.721 1.873-4.45 3.851-4.276 11.596-15.844 14.501-24.05 14.461-2.554-.013-4.959 1.532-5.818 3.937-4.463 12.488-15.636 31.368-34.156 31.725-20.201.388-42.981-5.795-52.673-9.205a5.452 5.452 0 00-1.702-.305c-6.259-.129-19.327-1.622-27.997-6.856-9.097-5.492-22.457-17.622-28-23-10.556-12.831-11.989-25.956-11.746-36.129.044-1.85-.893-3.573-2.345-4.721C11.099 131.868 1.95 118.558 2 96.866c.018-8.01 1.29-17.162 4.372-27.5 5.247-12.997 25.236-40.496 63.585-48.138 1.223-.244 2.317-.924 3.197-1.807 5.359-5.38 20.496-14.502 48.218-17.055 29.966-2.76 62.07 10.771 74.953 18.182.372.214.748.374 1.161.49C208.615 24.175 231.54 31.181 239 35.5c7.6 4.4 25.748 14.41 33.872 18.866 12 7 42.5 5.5 63 6 16.137.393 48.443 9.21 63.289 13.78.48.148.963.22 1.465.22H432c8.774 0 19.92 2.31 26.094 3.888 1.448.37 2.986.103 4.34-.527 3.267-1.52 9.288-3.361 17.438-3.361z" fill="#fff" stroke="#D9D9D9" stroke-width="4" stroke-linejoin="round"/></svg>
